X:4690
T:Polska
A:Dalarna - Malung
C:e. Troskari Erik
M:3/4
O:Sweden
R:Polska
Z:Carol Turner
%%TUNEURL: http://www.leeds.ac.uk/music/Info/RRTuneBk/gettune/00000c5b.html
%%ID:00000c5b
K:A min
B|\
c2 A^G E>B| c2 A^G E>B|\
c2 A^G EG| B2 e3 ::
B|\
cA ce e>d | B^G Bd d>B| \
cA ce e>d | B^G Bd d>B |\
c2B^G EG | A2 A3 :|
